tools/download-figma-icons/icons/solid/renewable-energy.svg

<svg width="24" height="24" viewBox="0 0 24 24" fill="none" xmlns="http://www.w3.org/2000/svg">
<path fill-rule="evenodd" clip-rule="evenodd" d="M0.750565 17.9995C2.49052 17.9995 3.3605 18.4645 4.12548 18.877C4.15227 18.891 4.17884 18.9048 4.20521 18.9186C4.54799 19.0974 4.85977 19.2601 5.25045 19.3645V8.86177C4.98571 8.76803 4.74721 8.62703 4.53872 8.44779L1.12556 10.4022C1.00556 10.4697 0.878061 10.4997 0.750565 10.4997C0.488071 10.4997 0.240578 10.3647 0.0980813 10.1247C-0.104414 9.76475 0.0155834 9.30726 0.375574 9.09727L3.79099 7.14732C3.76699 7.01757 3.75049 6.88632 3.75049 6.74983C3.75049 5.7711 4.37897 4.94762 5.25045 4.63788V0.749981C5.25045 0.337491 5.58794 0 6.00043 0C6.41292 0 6.75041 0.337491 6.75041 0.749981V4.63788C7.62189 4.94762 8.25037 5.7711 8.25037 6.74983C8.25037 6.88632 8.23387 7.01757 8.20988 7.14732L11.6253 9.09727C11.9853 9.30726 12.1053 9.76475 11.9028 10.1247C11.7603 10.3647 11.5128 10.4997 11.2503 10.4997C11.1228 10.4997 10.9953 10.4697 10.8753 10.4022L7.46214 8.44779C7.25365 8.62703 7.01516 8.76803 6.75041 8.86177V19.3795C6.75041 19.4033 6.74437 19.4241 6.73804 19.4458C6.7344 19.4584 6.73065 19.4713 6.72791 19.4853C7.57539 19.432 8.04788 19.1845 8.62536 18.877C9.39035 18.4645 10.2603 17.9995 12.0003 17.9995C13.7402 17.9995 14.6102 18.4645 15.3752 18.877C15.7502 19.0803 16.0794 19.252 16.5002 19.3645V16.4996H12.7503C12.517 16.4996 12.3003 16.3946 12.1578 16.2146C12.0153 16.0271 11.9703 15.7946 12.0228 15.5696L13.5227 9.56976C13.6052 9.23227 13.9052 8.99977 14.2502 8.99977H23.25C23.4832 8.99977 23.7 9.10477 23.8425 9.28476C23.985 9.47226 24.03 9.7055 23.9775 9.92975L22.4775 15.9296C22.395 16.2678 22.095 16.4996 21.75 16.4996H18.0001V19.4853C18.8326 19.432 19.3051 19.1845 19.8751 18.877C20.6401 18.4645 21.51 17.9995 23.25 17.9995C23.6625 17.9995 24 18.337 24 18.7495C24 19.162 23.6625 19.4995 23.25 19.4995C21.8919 19.4995 21.2911 19.8188 20.59 20.1913L20.5793 20.197L20.5691 20.2024C19.8674 20.5761 19.0723 20.9995 17.6251 20.9995C16.1779 20.9995 15.3829 20.5761 14.6812 20.2024L14.671 20.197L14.6603 20.1913C13.9592 19.8188 13.3584 19.4995 12.0003 19.4995C10.6422 19.4995 10.0414 19.8188 9.34026 20.1913L9.3296 20.197L9.31939 20.2024C8.61766 20.5761 7.82261 20.9995 6.37542 20.9995C4.92823 20.9995 4.13318 20.5761 3.43145 20.2024L3.42125 20.197L3.41058 20.1913C2.70945 19.8188 2.10865 19.4995 0.750565 19.4995C0.338075 19.4995 0.000583774 19.162 0.000583774 18.7495C0.000583774 18.337 0.338075 17.9995 0.750565 17.9995ZM19.8736 21.8755C20.6416 21.4646 21.513 20.9996 23.25 20.9996C23.6647 20.9996 24 21.3348 24 21.7495C24 22.1643 23.6647 22.4995 23.25 22.4995C21.8886 22.4995 21.2825 22.8233 20.5809 23.1981L20.5801 23.1985C19.8773 23.5742 19.0808 23.9995 17.6236 23.9995C16.1687 23.9995 15.3722 23.5742 14.671 23.1993L14.6681 23.1977C13.9666 22.8234 13.3597 22.4995 11.9973 22.4995C10.6376 22.4995 10.0316 22.8235 9.33034 23.1985C8.62836 23.5742 7.83188 23.9995 6.37467 23.9995C4.91896 23.9995 4.12248 23.5742 3.42049 23.1985L3.41968 23.1981C2.71804 22.8233 2.112 22.4995 0.750563 22.4995C0.335824 22.4995 0.000582186 22.1643 0.000582186 21.7495C0.000582186 21.3348 0.335824 20.9996 0.750563 20.9996C2.48787 20.9996 3.35935 21.4651 4.1272 21.8753L4.12773 21.8755C4.77946 22.2243 5.2947 22.4995 6.37467 22.4995C7.45614 22.4995 7.97138 22.2243 8.62386 21.8755C9.39109 21.4646 10.2618 20.9996 11.9973 20.9996C13.7372 20.9996 14.6087 21.4653 15.3774 21.8763L15.3779 21.8765C16.0294 22.2244 16.5447 22.4995 17.6236 22.4995C18.7051 22.4995 19.2211 22.2243 19.8736 21.8755Z" fill="black"/>
</svg>

<svg xmlns="http://www.w3.org/2000/svg" width="24" height="24" fill="none" viewBox="0 0 24 24"><path fill="currentColor" fill-rule="evenodd" d="M.75 18c1.74 0 2.61.465 3.375.877l.08.042c.343.178.655.341 1.045.445V8.862a2.2 2.2 0 0 1-.711-.414l-3.413 1.954a.757.757 0 0 1-1.028-.277.76.76 0 0 1 .278-1.028l3.415-1.95a2 2 0 0 1-.04-.397c0-.979.628-1.802 1.5-2.112V.75a.75.75 0 0 1 1.499 0v3.888c.87.31 1.5 1.133 1.5 2.112 0 .136-.017.268-.041.397l3.415 1.95c.36.21.48.668.278 1.028a.755.755 0 0 1-1.028.277L7.462 8.448a2.2 2.2 0 0 1-.712.414V19.38a.2.2 0 0 1-.012.066l-.01.04c.847-.054 1.32-.302 1.897-.609C9.39 18.465 10.26 18 12 18s2.61.465 3.375.877c.375.203.704.375 1.125.488V16.5h-3.75a.75.75 0 0 1-.592-.285.77.77 0 0 1-.135-.645l1.5-6A.746.746 0 0 1 14.25 9h9c.233 0 .45.105.593.285.142.187.187.42.134.645l-1.5 6a.745.745 0 0 1-.727.57H18v2.985c.833-.053 1.305-.3 1.875-.608.765-.412 1.635-.877 3.375-.877.413 0 .75.337.75.75 0 .412-.337.75-.75.75-1.358 0-1.959.319-2.66.691l-.01.006-.01.005c-.703.374-1.498.797-2.945.797s-2.242-.423-2.944-.797l-.01-.005-.01-.006c-.702-.372-1.303-.691-2.66-.691-1.359 0-1.96.319-2.66.691l-.011.006-.01.005c-.702.374-1.497.797-2.945.797s-2.242-.423-2.944-.797l-.01-.005-.01-.006C2.709 19.82 2.109 19.5.75 19.5a.75.75 0 0 1-.75-.75c0-.413.337-.75.75-.75m19.124 3.875c.768-.41 1.639-.875 3.376-.875a.75.75 0 1 1 0 1.5c-1.361 0-1.968.323-2.67.698-.703.376-1.5.802-2.956.802s-2.252-.426-2.953-.8l-.003-.002c-.701-.375-1.308-.698-2.67-.698-1.36 0-1.966.323-2.668.698-.702.376-1.498.802-2.955.802-1.456 0-2.253-.426-2.955-.802-.702-.375-1.308-.698-2.67-.698a.75.75 0 1 1 0-1.5c1.738 0 2.61.465 3.377.875.652.35 1.168.625 2.248.625s1.596-.276 2.249-.625c.767-.41 1.638-.875 3.373-.875 1.74 0 2.612.465 3.38.876.652.348 1.168.624 2.247.624 1.081 0 1.597-.276 2.25-.625" clip-rule="evenodd"/></svg>
